public/images/world.svg

<svg fill="none" height="87" viewBox="0 0 87 87" width="87" xmlns="http://www.w3.org/2000/svg"><rect fill="#191919" height="87" rx="12" width="87"/><path d="m55.532 24.0752c-3.5236-2.0501-7.3677-3.0752-11.532-3.0752s-8.0084 1.0251-11.532 3.0752c-3.5237 2.0501-6.3427 4.8691-8.3928 8.3928-2.0501 3.5236-3.0752 7.3677-3.0752 11.532s1.0251 8.0084 3.0752 11.532c2.0501 3.5237 4.8691 6.3427 8.3928 8.3928 3.5236 2.0501 7.3677 3.0752 11.532 3.0752s8.0084-1.0251 11.532-3.0752c3.5237-2.0501 6.3427-4.8691 8.3928-8.3928 2.0501-3.5236 3.0752-7.3677 3.0752-11.532s-1.0251-8.0084-3.0752-11.532c-2.0501-3.5237-4.8691-6.3427-8.3928-8.3928zm-10.1225 28.2535c-2.6268 0-4.6769-.7688-6.2786-2.2423-1.0891-1.0251-1.7939-2.2424-2.1142-3.7159h24.858c-.2563 2.1142-.897 4.1003-1.7939 5.9582h-14.6073zm-8.3928-10.6351c.3203-1.4095 1.0251-2.6908 2.1142-3.7159 1.6017-1.4735 3.6518-2.2423 6.2786-2.2423h14.6713c.961 1.8579 1.5376 3.844 1.7939 5.9582zm-8.5849-6.8552c1.6016-2.7548 3.7799-4.9972 6.5348-6.5988 2.7548-1.6017 5.766-2.4346 9.0975-2.4346 3.3314 0 6.3426.8329 9.0975 2.4346 1.4094.8328 2.6267 1.7938 3.7799 2.947h-11.5961c-2.6267 0-4.9972.5766-7.0474 1.6658-2.0501 1.0891-3.6518 2.6267-4.7409 4.5487-.7688 1.3454-1.2813 2.819-1.5376 4.3566h-5.702c.2563-2.4346 1.0251-4.741 2.2424-6.8552zm24.6657 24.922c-2.7549 1.6017-5.766 2.4346-9.0975 2.4346s-6.3426-.8329-9.0975-2.4346c-2.7549-1.6016-4.9331-3.844-6.5348-6.5988-1.2173-2.1142-1.9861-4.3566-2.2424-6.7911h5.702c.2563 1.5376.7688 3.0111 1.5376 4.3565 1.1532 1.922 2.7549 3.3956 4.7409 4.5488 2.0502 1.0891 4.4207 1.6657 7.0474 1.6657h11.532c-1.0891 1.0891-2.3064 2.0501-3.6518 2.8189z" fill="#fff"/></svg>

<svg width="87" height="87" viewBox="0 0 87 87" fill="none" xmlns="http://www.w3.org/2000/svg">
<rect width="87" height="87" rx="12" fill="#191919"/>
<path d="M55.532 24.0752C52.0084 22.0251 48.1643 21 44 21C39.8357 21 35.9916 22.0251 32.468 24.0752C28.9443 26.1253 26.1253 28.9443 24.0752 32.468C22.0251 35.9916 21 39.8357 21 44C21 48.1643 22.0251 52.0084 24.0752 55.532C26.1253 59.0557 28.9443 61.8747 32.468 63.9248C35.9916 65.9749 39.8357 67 44 67C48.1643 67 52.0084 65.9749 55.532 63.9248C59.0557 61.8747 61.8747 59.0557 63.9248 55.532C65.9749 52.0084 67 48.1643 67 44C67 39.8357 65.9749 35.9916 63.9248 32.468C61.8747 28.9443 59.0557 26.1253 55.532 24.0752ZM45.4095 52.3287C42.7827 52.3287 40.7326 51.5599 39.1309 50.0864C38.0418 49.0613 37.337 47.844 37.0167 46.3705H61.8747C61.6184 48.4847 60.9777 50.4708 60.0808 52.3287H45.4735H45.4095ZM37.0167 41.6936C37.337 40.2841 38.0418 39.0028 39.1309 37.9777C40.7326 36.5042 42.7827 35.7354 45.4095 35.7354H60.0808C61.0418 37.5933 61.6184 39.5794 61.8747 41.6936H37.0167ZM28.4318 34.8384C30.0334 32.0836 32.2117 29.8412 34.9666 28.2396C37.7214 26.6379 40.7326 25.805 44.0641 25.805C47.3955 25.805 50.4067 26.6379 53.1616 28.2396C54.571 29.0724 55.7883 30.0334 56.9415 31.1866H45.3454C42.7187 31.1866 40.3482 31.7632 38.298 32.8524C36.2479 33.9415 34.6462 35.4791 33.5571 37.4011C32.7883 38.7465 32.2758 40.2201 32.0195 41.7577H26.3175C26.5738 39.3231 27.3426 37.0167 28.5599 34.9025L28.4318 34.8384ZM53.0975 59.7604C50.3426 61.3621 47.3315 62.195 44 62.195C40.6685 62.195 37.6574 61.3621 34.9025 59.7604C32.1476 58.1588 29.9694 55.9164 28.3677 53.1616C27.1504 51.0474 26.3816 48.805 26.1253 46.3705H31.8273C32.0836 47.9081 32.5961 49.3816 33.3649 50.727C34.5181 52.649 36.1198 54.1226 38.1058 55.2758C40.156 56.3649 42.5265 56.9415 45.1532 56.9415H56.6852C55.5961 58.0306 54.3788 58.9916 53.0334 59.7604H53.0975Z" fill="white"/>
</svg>
